src/assets/showcase/images/icons/misc-active.svg

<svg enable-background="new 0 0 87.318 83.411" height="83.411" viewBox="0 0 87.318 83.411" width="87.318" xmlns="http://www.w3.org/2000/svg"><g fill="#1b82d7"><path d="m84.444 69.509-17.642-17.642c3.58-4.729 5.705-10.613 5.705-16.986 0-15.556-12.654-28.211-28.211-28.211-15.556 0-28.209 12.655-28.209 28.211s12.653 28.21 28.209 28.21c6.133 0 11.807-1.974 16.441-5.308l17.715 17.717c.828.827 1.914 1.241 2.996 1.241 1.086 0 2.17-.414 2.998-1.241 1.652-1.654 1.652-4.337-.002-5.991zm-59.884-34.629c0-10.883 8.852-19.737 19.736-19.737 10.883 0 19.736 8.854 19.736 19.737 0 10.884-8.854 19.736-19.736 19.736-10.884.001-19.736-8.852-19.736-19.736z"/><path d="m55.397 43.044c0 1.995-1.617 3.612-3.611 3.612h-16.255c-1.996 0-3.613-1.617-3.613-3.612v-16.256c0-1.994 1.617-3.611 3.613-3.611h16.255c1.994 0 3.611 1.617 3.611 3.611z"/><path d="m76.137 34.88c0 2.746-.416 5.394-1.15 7.904h9.83c1.336 0 2.422-1.084 2.422-2.421v-10.895c0-1.337-1.086-2.421-2.422-2.421h-9.793c.719 2.489 1.113 5.116 1.113 7.833z"/><path d="m12.454 34.88c0-2.712.393-5.331 1.109-7.816-.057-.004-.111-.017-.168-.017h-10.895c-1.338 0-2.421 1.084-2.421 2.421v10.896c0 1.337 1.083 2.421 2.421 2.421h10.895c.064 0 .125-.014.189-.019-.73-2.504-1.13-5.148-1.13-7.886z"/></g></svg>

<?xml version="1.0" encoding="utf-8"?>
<!-- Generator: Adobe Illustrator 15.1.0, SVG Export Plug-In . SVG Version: 6.00 Build 0)  -->
<!DOCTYPE svg PUBLIC "-//W3C//DTD SVG 1.1//EN" "http://www.w3.org/Graphics/SVG/1.1/DTD/svg11.dtd">
<svg version="1.1" id="Layer_1" xmlns="http://www.w3.org/2000/svg" xmlns:xlink="http://www.w3.org/1999/xlink" x="0px" y="0px"
	 width="87.318px" height="83.411px" viewBox="0 0 87.318 83.411" enable-background="new 0 0 87.318 83.411" xml:space="preserve">
<g id="MISC">
	<path fill="#1B82D7" d="M84.444,69.509L66.802,51.867c3.58-4.729,5.705-10.613,5.705-16.986c0-15.556-12.654-28.211-28.211-28.211
		c-15.556,0-28.209,12.655-28.209,28.211S28.74,63.091,44.296,63.091c6.133,0,11.807-1.974,16.441-5.308L78.452,75.5
		c0.828,0.827,1.914,1.241,2.996,1.241c1.086,0,2.17-0.414,2.998-1.241C86.098,73.846,86.098,71.163,84.444,69.509z M24.56,34.88
		c0-10.883,8.852-19.737,19.736-19.737c10.883,0,19.736,8.854,19.736,19.737c0,10.884-8.854,19.736-19.736,19.736
		C33.412,54.617,24.56,45.764,24.56,34.88z"/>
	<path fill="#1B82D7" d="M55.397,43.044c0,1.995-1.617,3.612-3.611,3.612H35.531c-1.996,0-3.613-1.617-3.613-3.612V26.788
		c0-1.994,1.617-3.611,3.613-3.611h16.255c1.994,0,3.611,1.617,3.611,3.611V43.044z"/>
	<path fill="#1B82D7" d="M76.137,34.88c0,2.746-0.416,5.394-1.15,7.904h9.83c1.336,0,2.422-1.084,2.422-2.421V29.468
		c0-1.337-1.086-2.421-2.422-2.421h-9.793C75.743,29.536,76.137,32.163,76.137,34.88z"/>
	<path fill="#1B82D7" d="M12.454,34.88c0-2.712,0.393-5.331,1.109-7.816c-0.057-0.004-0.111-0.017-0.168-0.017H2.5
		c-1.338,0-2.421,1.084-2.421,2.421v10.896c0,1.337,1.083,2.421,2.421,2.421h10.895c0.064,0,0.125-0.014,0.189-0.019
		C12.854,40.262,12.454,37.618,12.454,34.88z"/>
</g>
</svg>
